X: 19009
T: Insurrection
R: jig
M: 6/8
K: Aminor
eAA Bcd|eAg edB|eAA Bcd|BGE EB/2c/2d|eAA Bcd|
eAg edB|1 cdc BcB|AGE D3:|2 cdc Beg aec BAG||
|:E2E EDC|EA,A, A,3|EGE EDC|B,DG GDG|EGE EDC|
EA,A, A,3|1 EAB cdc|BdB GDG:|2 EAB cdc|Bde geg||
gae eae|eae cBA|g2d g2d|g2d BAG|eae eae|eae cBA
|EA/2B/2c FA/2B/2c|BdB G3|aee aee|aee cBA|gdd gdd|
gdd BAG|aee aee|aee cBA|EA/2B/2c FA/2B/2c|BdB GEG:|A6||

